svgs/unofficial/fisher.svg

<svg height="500" width="500" xmlns="http://www.w3.org/2000/svg"><path d="m184.846 204.845v90.309h-110.309l-45.154-45.154 45.154-45.154h110.309zm0 110.309v90.309l-90.31-90.309zm110.308 0v110.309l-45.154 45.154-45.154-45.154v-110.309zm-110.308-220.618v90.31h-90.31zm110.308 110.31v90.308h-90.308v-90.309h90.308zm110.31 110.308-90.31 90.309v-90.309zm-110.311-240.617v110.309h-90.308v-110.309l45.155-45.154 45.154 45.154zm175.464 175.463-45.154 45.154h-110.309v-90.309h110.309zm-65.154-65.154h-90.309v-90.31l90.31 90.31z" fill-rule="evenodd"/></svg>

<svg width="500" height="500" xmlns="http://www.w3.org/2000/svg"><path d="M184.846 204.845v90.309H74.537L29.383 250l45.154-45.154h110.309zm0 110.309v90.309l-90.31-90.309h90.31zm110.308 0v110.309L250 470.617l-45.154-45.154V315.154h90.308zM184.846 94.536v90.31h-90.31l90.31-90.31zm110.308 110.31v90.308h-90.308v-90.309h90.308zm110.31 110.308l-90.31 90.309v-90.309h90.31zM295.153 74.537v110.309h-90.308V74.537L250 29.383l45.154 45.154zM470.617 250l-45.154 45.154H315.154v-90.309h110.309L470.617 250zm-65.154-65.154h-90.309v-90.31l90.31 90.31z" fill="#000" fill-rule="evenodd"/></svg>
